X: 8
T: Smash The Windows
Z: Aaron Bergen
S: https://thesession.org/tunes/101#setting48783
R: jig
M: 6/8
L: 1/8
K: Dmaj
|:"D"DED F2A|d2f ecA|"G"G2B "D"F2A|"A"E2F GFE|
"D"DED F2A|d2f ecA|"G"Bgf "A"edc|1 "D"d3 dAF:|2 "D"d2d dfg||
"D"a2f d2e|f2g agf|"A"gfe cAc|e2f gfe|
"D"a2f d2e|f2g agf|"A"gfe cde|"D"d2d dfg|
"D"a2f dcd|f2g agf|"A"gfe cAc|e2f gfe|
"D"fed "A"gfe|"D"agf "G"bag|"D"fgf "A"edc|"D"d6||

